T: Joe Murphy's Return From Chicago
M: 3/4
L: 1/8
K: Dmin
A,2|:F4F2|"A"ED ^CD EF|"dm"([D4]|
[D2A2]|"gm"B4B2|"D"AG ^FG AB|
"gm"G6-|"G"G4[G2=B2]|"A"[G6=B2]^c4|
^cA =Bc de|"^dm"f6-|fd AG FD|F4F2|[1"A"ED ^CD EF|
[A,4E4][A,2E2]|[A,4E4]A,2:|
[2E2F2E2|"^dm"D3D D2|"D"D2^F2G2
